X: 24
T: No_118_Crawfish_Dance_Song.krn
N: Derived from No_118_Crawfish_Dance_Song.krn
%%abc-version 2.0
%%abcx-abcm2ps-target-version 5.9.1 (29 Sep 2008)
%%abc-creator hum2abc beta
%%abcx-conversion-date 2019/03/15 08:35:44
%%humdrum-veritas 1541691716
%%humdrum-veritas-data 2092701729
%%linebreak <none>
%%barnumbers 0
L: 1/8
M: 3/4
K: B clef=bass
[K:clef=bass][M:3/4]z4C3/C/ [I:setbarnb 2]| 
C2B,2F,F, | 
G,4B,3/G,/ | 
G,2F,2C,C, | 
F,4G,3/G,/ | 
G,2F, z F,C, | 
F,4G,3/G,/ | 
G,2F,2F,C, | 
F,4G,3/G,/ | 
G,2F,2C,C, | 
F,6 :|]  



